gama.ui.shared/icons_svg/dark/gaml/_field.svg

<svg height="18" viewBox="-561.587 -2834.086 24 18" width="24" xmlns="http://www.w3.org/2000/svg"><path d="m-552.25376-2823.3362v-3.5h-4.66664v3.5zm0 .875h-4.66664v3.5h4.66664zm-8.55554-.875h3.1111v-3.5h-3.1111zm0 .875v2.1875c0 .7262.5211 1.3125 1.16665 1.3125h1.94445v-3.5zm12.4444-.875v-3.5h-3.1111v3.5zm0 .875h-3.1111v3.5h1.94446c.64554 0 1.16664-.5863 1.16664-1.3125zm-3.88886-5.25v-3.5h-4.66664v3.5zm-8.55554 0h3.1111v-3.5h-1.94445c-.64555 0-1.16665.5862-1.16665 1.3125zm12.4444 0v-2.1875c0-.7263-.5211-1.3125-1.16664-1.3125h-1.94446v3.5zm-11.27775-4.375h10.11111c1.07334 0 1.94444.98 1.94444 2.1875v9.625c0 1.2075-.8711 2.1875-1.94444 2.1875h-10.11111c-1.07335 0-1.94445-.98-1.94445-2.1875v-9.625c0-1.2075.8711-2.1875 1.94445-2.1875z" fill="#999"/></svg>

<?xml version="1.0" encoding="UTF-8" standalone="no"?>
<!DOCTYPE svg PUBLIC "-//W3C//DTD SVG 1.1//EN" "http://www.w3.org/Graphics/SVG/1.1/DTD/svg11.dtd">
<svg xmlns:dc="http://purl.org/dc/elements/1.1/" xmlns:xl="http://www.w3.org/1999/xlink" version="1.1" xmlns="http://www.w3.org/2000/svg" viewBox="-561.5871 -2834.0862 24 18" width="24" height="18">
  <defs/>
  <g id="SOURCES" stroke-dasharray="none" stroke="none" stroke-opacity="1" fill="none" fill-opacity="1">
    <title>SOURCES</title>
    <g id="SOURCES_New">
      <title>New</title>
      <g id="Group_10476">
        <g id="Graphic_10133"/>
        <g id="Group_10042">
          <title>table</title>
          <g id="Graphic_10043">
            <path d="M -552.25376 -2823.3362 L -552.25376 -2826.8362 L -556.9204 -2826.8362 L -556.9204 -2823.3362 Z M -552.25376 -2822.4612 L -556.9204 -2822.4612 L -556.9204 -2818.9612 L -552.25376 -2818.9612 Z M -560.8093 -2823.3362 L -557.6982 -2823.3362 L -557.6982 -2826.8362 L -560.8093 -2826.8362 Z M -560.8093 -2822.4612 L -560.8093 -2820.2737 C -560.8093 -2819.5475 -560.2882 -2818.9612 -559.64265 -2818.9612 L -557.6982 -2818.9612 L -557.6982 -2822.4612 Z M -548.3649 -2823.3362 L -548.3649 -2826.8362 L -551.476 -2826.8362 L -551.476 -2823.3362 Z M -548.3649 -2822.4612 L -551.476 -2822.4612 L -551.476 -2818.9612 L -549.53154 -2818.9612 C -548.886 -2818.9612 -548.3649 -2819.5475 -548.3649 -2820.2737 Z M -552.25376 -2827.7112 L -552.25376 -2831.2112 L -556.9204 -2831.2112 L -556.9204 -2827.7112 Z M -560.8093 -2827.7112 L -557.6982 -2827.7112 L -557.6982 -2831.2112 L -559.64265 -2831.2112 C -560.2882 -2831.2112 -560.8093 -2830.625 -560.8093 -2829.8987 Z M -548.3649 -2827.7112 L -548.3649 -2829.8987 C -548.3649 -2830.625 -548.886 -2831.2112 -549.53154 -2831.2112 L -551.476 -2831.2112 L -551.476 -2827.7112 Z M -559.64265 -2832.0862 L -549.53154 -2832.0862 C -548.4582 -2832.0862 -547.5871 -2831.1062 -547.5871 -2829.8987 L -547.5871 -2820.2737 C -547.5871 -2819.0662 -548.4582 -2818.0862 -549.53154 -2818.0862 L -559.64265 -2818.0862 C -560.716 -2818.0862 -561.5871 -2819.0662 -561.5871 -2820.2737 L -561.5871 -2829.8987 C -561.5871 -2831.1062 -560.716 -2832.0862 -559.64265 -2832.0862 Z" fill="#999"/>
          </g>
        </g>
      </g>
    </g>
  </g>
</svg>
